assets/images/telegram.svg

<svg width="53" height="45" viewBox="0 0 53 45" fill="none" xmlns="http://www.w3.org/2000/svg">
<path d="M52.8305 4.09682L44.8005 42.3166C44.2025 45.0093 42.6649 45.6174 40.4438 44.4013L28.3989 35.3675L22.5045 41.1005C21.9066 41.7085 21.3086 42.3166 19.9418 42.3166L20.8815 29.7214L43.3483 8.96115C44.288 8.00566 43.092 7.65821 41.8961 8.43997L13.962 26.3338L1.91708 22.5987C-0.731095 21.73 -0.731095 19.9059 2.51506 18.6898L49.328 0.187982C51.6345 -0.506923 53.5993 0.70916 52.8305 4.09682Z" fill="#020202"/>
</svg>

<svg xmlns="http://www.w3.org/2000/svg" width="53" height="45" fill="none"><path fill="#020202" d="m52.83 4.097-8.03 38.22c-.597 2.692-2.135 3.3-4.356 2.084l-12.045-9.034-5.895 5.733c-.597.608-1.195 1.217-2.562 1.217l.94-12.596 22.466-20.76c.94-.955-.256-1.303-1.452-.521L13.962 26.334 1.917 22.599c-2.648-.869-2.648-2.693.598-3.91L49.328.189c2.306-.695 4.271.521 3.502 3.909Z"/></svg>
